X:11
T:Donnie LeBlanc
R:jig
C:Kathleen LeBlanc
D:Kinnon & Betty Beaton, Cape Breton Fiddle Compilation
Z:Paul Stewart Cranford (P.S.C.), <http://www.cranfordpub.com>
L:1/8
M:6/8
Q:300
K:A
E|AcB AFE|FEC EFA|BcB Baf|ecA BAF|
AcB AFE|FEC EFA|Baf ecB|[1cAA A2:|[2cAA AcB||
|:Aaa aga|baf ecA|cBB BAB|cBB BcB|
[1Aaa aga|baf ecA|EFA Bcd|ecA AcB:|
[2AcB AFE|FEC EFA|Baf ecB|cAA A2|]
